dist/img/svg/quote.svg

<svg width="39" height="39" viewBox="0 0 39 39" fill="none" xmlns="http://www.w3.org/2000/svg">
<path d="M10.5611 16.2511C10.1987 16.2511 9.85096 16.3063 9.50484 16.3567C9.61696 15.9797 9.73234 15.5962 9.91759 15.2517C10.1028 14.7512 10.3921 14.3173 10.6797 13.8802C10.9202 13.4073 11.3443 13.0872 11.6563 12.6826C11.983 12.2893 12.4282 12.0277 12.7808 11.7011C13.127 11.3598 13.5803 11.1892 13.9411 10.9487C14.3181 10.7326 14.6463 10.4937 14.9973 10.3799L15.8732 10.0192L16.6435 9.69905L15.8553 6.5498L14.8852 6.7838C14.5748 6.8618 14.1962 6.9528 13.7656 7.06168C13.3252 7.14293 12.8556 7.36555 12.3323 7.56868C11.8156 7.79943 11.2176 7.95543 10.6618 8.32593C10.1028 8.68018 9.45771 8.97593 8.88896 9.45043C8.33809 9.93955 7.67346 10.3637 7.18271 10.9861C6.64646 11.5678 6.11671 12.1788 5.70559 12.8743C5.22946 13.5373 4.90609 14.2653 4.56484 14.9852C4.25609 15.7051 4.00746 16.4412 3.80434 17.1562C3.41921 18.5894 3.24696 19.9512 3.18034 21.1163C3.12509 22.2831 3.15759 23.2532 3.22584 23.9552C3.25021 24.2867 3.29571 24.6084 3.32821 24.8311L3.36884 25.1041L3.41109 25.0943C3.70011 26.4444 4.36546 27.6851 5.33015 28.6728C6.29485 29.6606 7.51948 30.3551 8.86238 30.6759C10.2053 30.9967 11.6116 30.9308 12.9186 30.4858C14.2256 30.0408 15.3799 29.2348 16.248 28.1611C17.116 27.0875 17.6624 25.79 17.8239 24.4188C17.9854 23.0476 17.7553 21.6587 17.1604 20.4127C16.5655 19.1668 15.63 18.1147 14.4621 17.3782C13.2943 16.6418 11.9418 16.251 10.5611 16.2511ZM28.4361 16.2511C28.0737 16.2511 27.726 16.3063 27.3798 16.3567C27.492 15.9797 27.6073 15.5962 27.7926 15.2517C27.9778 14.7512 28.2671 14.3173 28.5547 13.8802C28.7952 13.4073 29.2193 13.0872 29.5313 12.6826C29.858 12.2893 30.3032 12.0277 30.6558 11.7011C31.002 11.3598 31.4553 11.1892 31.8161 10.9487C32.1931 10.7326 32.5213 10.4937 32.8723 10.3799L33.7482 10.0192L34.5185 9.69905L33.7303 6.5498L32.7602 6.7838C32.4498 6.8618 32.0712 6.9528 31.6406 7.06168C31.2002 7.14293 30.7306 7.36555 30.2073 7.56868C29.6922 7.80105 29.0926 7.95543 28.5368 8.32755C27.9778 8.6818 27.3327 8.97755 26.764 9.45205C26.2131 9.94118 25.5485 10.3653 25.0577 10.9861C24.5215 11.5678 23.9917 12.1788 23.5806 12.8743C23.1045 13.5373 22.7811 14.2653 22.4398 14.9852C22.1311 15.7051 21.8825 16.4412 21.6793 17.1562C21.2942 18.5894 21.122 19.9512 21.0553 21.1163C21.0001 22.2831 21.0326 23.2532 21.1008 23.9552C21.1252 24.2867 21.1707 24.6084 21.2032 24.8311L21.2438 25.1041L21.2861 25.0943C21.5751 26.4444 22.2405 27.6851 23.2052 28.6728C24.1699 29.6606 25.3945 30.3551 26.7374 30.6759C28.0803 30.9967 29.4866 30.9308 30.7936 30.4858C32.1006 30.0408 33.2549 29.2348 34.1229 28.1611C34.991 27.0875 35.5374 25.79 35.6989 24.4188C35.8604 23.0476 35.6303 21.6587 35.0354 20.4127C34.4405 19.1668 33.505 18.1147 32.3371 17.3782C31.1693 16.6418 29.8168 16.251 28.4361 16.2511Z" fill="#2A2A2A"/>
</svg>

<svg width="39" height="39" viewBox="0 0 39 39" fill="none" xmlns="http://www.w3.org/2000/svg"><path d="M10.561 16.251c-.362 0-.71.055-1.056.106.112-.377.227-.76.413-1.105.185-.5.474-.935.762-1.372.24-.473.664-.793.976-1.197.327-.394.772-.655 1.125-.982.346-.341.8-.512 1.16-.752.377-.216.705-.455 1.056-.57l.876-.36.77-.32-.788-3.15-.97.235c-.31.078-.689.169-1.12.278-.44.08-.91.304-1.433.507-.516.23-1.114.386-1.67.757-.56.354-1.204.65-1.773 1.124-.55.49-1.216.914-1.706 1.536-.537.582-1.066 1.193-1.477 1.888-.477.663-.8 1.391-1.141 2.111a17.77 17.77 0 00-.76 2.171 19.615 19.615 0 00-.625 3.96 20.242 20.242 0 00.046 2.84c.024.33.07.652.102.875l.04.273.043-.01a7.312 7.312 0 107.15-8.843zm17.875 0c-.362 0-.71.055-1.056.106.112-.377.227-.76.413-1.105.185-.5.474-.935.762-1.372.24-.473.664-.793.976-1.197.327-.394.772-.655 1.125-.982.346-.341.8-.512 1.16-.752.377-.216.705-.455 1.056-.57l.876-.36.77-.32-.788-3.15-.97.235c-.31.078-.689.169-1.12.278-.44.08-.91.304-1.433.507-.515.232-1.114.386-1.67.759-.56.354-1.204.65-1.773 1.124-.55.49-1.215.913-1.706 1.534-.537.582-1.066 1.193-1.477 1.888-.476.663-.8 1.391-1.141 2.111a17.77 17.77 0 00-.76 2.171 19.622 19.622 0 00-.625 3.96 20.257 20.257 0 00.046 2.84c.024.33.07.652.102.875l.04.273.043-.01a7.312 7.312 0 107.15-8.843z" fill="#2A2A2A"/></svg>
